!!!COM: Chopin, Frederic
!!!CDT: 1810///-1849///
!!!OTL: Waltz in C-sharp Minor, Op. 64, No. 2
!!!OPS: Op. 64
!!!ONM: No. 2
!!!ONB: Minute Waltz
!!!ODT: 1847///
!!!PPP: Leipzig
!!!PDT: 1847///
!!!ODE: Baroness Charlotte de Rothschild
**kern	**kern	**dynam
*staff2	*staff1	*staff1/2
*clefF4	*clefG2	*
*k[f#c#g#d#]	*k[f#c#g#d#]	*k[f#c#g#d#]
*M3/4	*M3/4	*M3/4
*MM180	*MM180	*MM180
4r	([4g#/	mp
=1	=1	=1
4CC#/	2.g#\] 2.ee\	.
4G#\ 4c#\ 4e\	.	.
4G#\ 4c#\ 4e\	.	.
=2	=2	=2
4DD#/	2.f##/ 2.dd#/)	.
4D#\ 4A#\ 4c#\	.	.
4D#\ 4A#\ 4c#\	.	.
=3	=3	=3
4GG#/	8r	.
.	8f#/ (8g#/L	<
.	bq/	.
4D#\ 4G#\ 4B#\	8f#/ 8a/	.
.	16r	.
.	16f#/ 16g#/Jk	.
4D#\ 4G#\ 4B#\	4f#/ 4dd#/)	.
=4	=4	=4
4C#/	8r	.
.	8f#/ (8g#/L	.
.	bq/	.
4G#\ 4d#\	8f#/ 8a/	.
.	16r	.
.	16f#/ 16g#/Jk	.
4G#\ 4c#\	4e/ 4cc#/)	.
=5	=5	=5
4EE/	2.e/ (2.cc#/	>
4E\ 4A\	.	.
4E\ 4A\	.	.
=6	=6	=6
4EE/	&(2.d#/&) 2.b#/)	.
4F#\ 4A\	.	.
4F#\ 4A\	.	.
=7	=7	=7
4EE/	8r	.
.	8dn/ (8e/L	<
.	g#q/	.
4G#\	8d/ 8f#/	.
.	16r	.
.	16d/ 16e/Jk	.
4E\ 4G#\	4d/ 4b/)	.
=8	=8	=8
4AA/	8r	.
.	8dn/ (8e/L	.
.	g#q/	.
4E\ 4A\	8c#/ 8f#/	.
.	16r	.
.	16c#/ 16e/Jk	.
4D#\ 4A\	4c#/ 4a/)	.
=9	=9	=9
*	*^	*
4GG#/	2a/	2.B#\ 2.f#\	<
4G#\ 4d#\	.	.	.
4G#\ 4d#\	[4g#/	.	.
=10	=10	=10	=10
*^	*	*	*
4C#/	4r	8g#/L]	2.e\	.
.	.	8g#/	.	.
2c#/	4G#\	8g#/	.	.
.	.	8a/	.	.
.	4F#\	8a/	.	.
.	.	8a#/J	.	.
*v	*v	*	*	*
=11	=11	=11	=11
4BB/	2cc#/	2.d#\ 2.an\	.
4B\ 4f#\	.	.	.
4B\ 4f#\	[4b/	.	.
=12	=12	=12	=12
*^	*	*	*
4r	2.E\	8b/L]	2g#\	.
.	.	8b/	.	.
4B/ 4e/	.	8b/	.	.
.	.	8cc#/	.	.
4A#/ 4e/	.	8cc#/	4g#\	.
.	.	8cc##/J	.	.
*v	*v	*	*	*
*	*v	*v	*
=13	=13	=13
4D#\	8cc##\L	.
.	8dd#\	.
*clefG2	*	*
4B/ 4d#/ 4g#/ 4b/	8dd#\	.
.	8gg#\	.
4r	8gg#\	.
.	8ff##\J	.
*clefF4	*	*
=14	=14	=14
4DD#/	8ff##\L	>
.	8ff#\	.
4c#\ 4f##\	8ff#\	.
.	8ee#\	.
4r	8ee#\	.
.	8een\J	.
=15	=15	=15
4GG#/	8ee\L	.
.	8dd#\	.
4B#\ 4f#\	8dd#\	.
.	8cc##\	.
4r	8cc##\	.
.	8cc#\J	.
=16	=16	=16
2.r	8cc#\L	.
.	8b#\	.
.	8b#\	.
.	8bn\	.
.	8b\	.
.	8a\J	.
=17	=17	=17
4C#/	2.g#\ (2.ee\	.
4G#\ 4c#\ 4e\	.	.
4G#\ 4c#\ 4e\	.	.
=18	=18	=18
*^	*	*
4r	2.D#\	2.f##/ 2.dd#/)	.
4A#/ 4c#/	.	.	.
4A#/ 4c#/	.	.	.
*v	*v	*	*
=19	=19	=19
4GG#/	8r	.
.	8f#/ (8g#/L	.
.	bq/	.
4D#\ 4G#\ 4B#\	8f#/ 8a/	.
.	16r	.
.	16f#/ 16g#/Jk	.
4D#\ 4G#\ 4B#\	4f#/ 4dd#/)	.
=20	=20	=20
4C#/	8r	.
.	8f#/ (8g#/L	.
.	bq/	.
4G#\ 4d#\	8f#/ 8a/	.
.	16r	.
.	16f#/ 16g#/Jk	.
4G#\ 4c#\	4e/ 4cc#/)	.
=21	=21	=21
4EE/	2.e/ (2.cc#/	.
4E\ 4A\	.	.
4E\ 4A\	.	.
=22	=22	=22
4EE/	2.d#/ 2.b#/)	.
4F#\ 4A\	.	.
4F#\ 4A\	.	.
=23	=23	=23
4EE/	8r	.
.	8dn/ (8e/L	.
.	g#q/	.
4G#\	8d/ 8f#/	.
.	16r	.
.	16d/ 16e/Jk	.
4E\ 4G#\	4d/ 4b/)	.
=24	=24	=24
4AA/	8r	.
.	8dn/ (8e/L	.
.	g#q/	.
4E\ 4A\	8c#/ 8f#/	.
.	16r	.
.	16c#/ 16e/Jk	.
4D#\ 4A\	4c#/ 4a/)	.
=25	=25	=25
*	*^	*
4GG#/	2a/	2.B#\ 2.f#\	.
4G#\ 4d#\	.	.	.
4G#\ 4d#\	[4g#/	.	.
=26	=26	=26	=26
4C#/	8g#/L]	2.e#\	.
.	8g#/	.	.
4G#\ 4B\ 4c#\	8g#/	.	.
.	8a/	.	.
4G#\ 4B\ 4c#\	8a/	.	.
.	8a#/J	.	.
=27	=27	=27	=27
4FF#/	2dd#/	2.en\	.
4A#\ 4f#\	.	.	.
4A#\ 4f#\	[4cc#/	.	.
*	*v	*v	*
=28	=28	=28
4BB/	8cc#/L]	.
.	8f#/	.
4A\ 4B\	8f#/	.
.	8g#/	.
4A\ 4B\	8g#/	.
.	8a/J	.
=29	=29	=29
4EE/	2cc#\	.
4BB\ 4G#\	.	.
4EE#/	[4b\	.
=30	=30	=30
4FF#/	8b/L]	.
.	8a/	.
4D#\ 4A\	8g#/	.
.	8f#/	.
4r	8e/	.
.	8f#/J	.
=31	=31	=31
4GG#/	8f##/L	.
.	8g#/	.
4E\ 4c#\	8G#/	.
.	8e/	.
4F#\ 4B#\	8e/	.
.	8d#/J	.
=32	=32	=32
4CC#/	4c#/	.
4G#\ 4e\	4r	.
4r	4g#/	.
=33	=33	=33
4BB#/	8gg#\L	p
.	8aa\	.
4G#\ 4d#\	8gg#\	.
.	8ff#\	.
4G#\ 4d#\	8dd#\	.
.	8g#\J	.
=34	=34	=34
4C#/	8ff#\L	.
.	8gg#\	.
4G#\ 4e\	8ff#\	.
.	8ee\	.
4G#\ 4e\	8cc#\	.
.	8g#\J	.
=35	=35	=35
4GG#/	8ee\L	.
.	8ff#\	.
4F#\ 4B#\	8ee\	.
.	8dd#\	.
4F#\ 4B#\	8b#\	.
.	8f#\J	.
=36	=36	=36
4AA/	8dd#\L	.
.	8ee\	.
4E\ 4c#\	8dd#\	.
.	8cc#\	.
4E\ 4c#\	8a\	.
.	8e\J	.
=37	=37	=37
4FF#/	8cc#/L	.
.	8dd#/	.
4F#\ 4c#\	8cc#/	.
.	8a/	.
4r	8d#/	.
.	8cc#/J	.
=38	=38	=38
4GG#/	8cc#/L	.
.	8dd#/	.
4E\ 4G#\	8cc#/	.
.	8g#/	.
4r	8c#/	.
.	8g#/J	.
=39	=39	=39
2GGG#/	8g#^/L	.
.	8G#/	.
.	8d#/	.
.	8g#/	.
4F#\ 4B#\	8a/	.
.	8g#/J	.
=40	=40	=40
4C#/	8f##\L	<
.	8g#\	.
4G#\ 4e\	8b#\	.
.	8cc#\	.
4G#\ 4e\	8ee\	.
.	8ff#\J	.
=41	=41	=41
4BB#/	8gg#\L	>
.	8aa\	.
4G#\ 4d#\	8gg#\	.
.	8ff#\	.
4G#\ 4d#\	8dd#\	.
.	8g#\J	.
=42	=42	=42
4C#/	8ff#\L	>
.	8gg#\	.
4G#\ 4c#\ 4e\	8ff#\	.
.	8ee\	.
4G#\ 4c#\ 4e\	8cc#\	.
.	8g#\J	.
=43	=43	=43
4GG#/	8ee\L	.
.	8ff#\	.
4F#\ 4B#\	8ee\	.
.	8dd#\	.
4F#\ 4B#\	8b#\	.
.	8f#\J	.
=44	=44	=44
4AA/	8dd#\L	.
.	8ee\	.
4E\ 4c#\	8dd#\	.
.	8cc#\	.
4E\ 4c#\	8a\	.
.	8e\J	.
=45	=45	=45
4FF#/	8a\L	.
.	8b\	.
4r	8cc#\	.
.	8ddn\	.
4A\ 4dn\ 4a\	8ee\	>
.	8ff#\J	.
=46	=46	=46
2.r	8ggn\L	.
.	8gg#\	.
.	8aa\	.
.	8bb\	.
.	8ccc#\	.
.	8dddn\J	.
=47	=47	=47
4GG#/	8ddd#\L	.
.	8eee\	.
4G#\ 4B#\ 4f#\	8eee#\	.
.	8fff#\	.
4G#\ 4B#\ 4f#\	8fff##\	.
.	8ggg#\J	.
=48	=48	=48
4C#/	2cccc#\	.
4G#\ 4e\	.	.
4r	4g#/	mp
=49	=49	=49
4BB#/	8gg#\L	>
.	8aa\	.
4G#\ 4d#\	8gg#\	.
.	8ff#\	.
4G#\ 4d#\	8dd#\	.
.	8g#\J	.
=50	=50	=50
4C#/	8ff#\L	>
.	8gg#\	.
4G#\ 4e\	8ff#\	.
.	8ee\	.
4G#\ 4e\	8cc#\	.
.	8g#\J	.
=51	=51	=51
4GG#/	8ee\L	.
.	8ff#\	.
4F#\ 4B#\	8ee\	.
.	8dd#\	.
4F#\ 4B#\	8b#\	.
.	8f#\J	.
=52	=52	=52
4AA/	8dd#\L	.
.	8ee\	.
4E\ 4c#\	8dd#\	.
.	8cc#\	.
4E\ 4c#\	8a\	.
.	8e\J	.
=53	=53	=53
4FF#/	8cc#/L	.
.	8dd#/	.
4F#\ 4c#\	8cc#/	.
.	8a/	.
4F#\ 4c#\	8d#/	.
.	8cc#/J	.
=54	=54	=54
4GG#/	8cc#/L	.
.	8dd#/	.
4E\ 4G#\	8cc#/	.
.	8g#/	.
4r	8c#/	.
.	8g#/J	.
=55	=55	=55
2GGG#/	8g#/L	.
.	8G#/	.
.	8d#/	.
.	8g#/	.
4F#\ 4B#\	8a/	.
.	8g#/J	.
=56	=56	=56
4C#/	8f##\L	.
.	8g#\	.
4G#\ 4e\	8b#\	.
.	8cc#\	.
4G#\ 4e\	8ee\	.
.	8ff#\J	.
=57	=57	=57
4BB#/	8gg#\L	>
.	8aa\	.
4G#\ 4d#\	8gg#\	.
.	8ff#\	.
4G#\ 4d#\	8dd#\	.
.	8g#\J	.
=58	=58	=58
4C#/	8ff#\L	.
.	8gg#\	.
4G#\ 4e\	8ff#\	.
.	8ee\	.
4G#\ 4e\	8cc#\	.
.	8g#\J	.
=59	=59	=59
4GG#/	8ee\L	.
.	8ff#\	.
4F#\ 4B#\	8ee\	.
.	8dd#\	.
4F#\ 4B#\	8b#\	.
.	8f#\J	.
=60	=60	=60
4AA/	8dd#\L	.
.	8ee\	.
4E\ 4c#\	8dd#\	.
.	8cc#\	.
4r	8a\	.
.	8e\J	.
=61	=61	=61
2FF#/	8a\L	.
.	8b\	.
.	8cc#\	.
.	8ddn\	.
4A\ 4dn\ 4a\	8ee\	>
.	8ff#\J	.
=62	=62	=62
2r	8ggn\L	.
.	8gg#\	.
.	8aa\	.
.	8bb\	.
4r	8ccc#\	.
.	8dddn\J	.
=63	=63	=63
4GG#/	8ddd#\L	.
.	8eee\	.
4G#\ 4B#\ 4f#\	8eee#\	.
.	8fff#\	.
4G#\ 4B#\ 4f#\	8fff##\	.
.	8ggg#\J	.
=64	=64	=64
4C#/	4cccc#\	.
4G#\ 4c#\ 4e\	4r	.
=	=	=
*k[b-e-a-d-g-]	*k[b-e-a-d-g-]	*k[b-e-a-d-g-]
4r	4f/	.
=65	=65	=65
4DD-/	2.ff\	.
4A-\ 4d-\ 4f\	.	.
[4A-\ [4d-\ [4f\	.	.
=66	=66	=66
4A-\] 4d-\] 4f\]	2ff\	.
4A-\ 4d-\ 4f\	.	.
[4An\ 4d-\ 4f\	[4ee-\	.
=67	=67	=67
4D-\ 4A\]	2ee-\]	.
4B-\ 4f\	.	.
[4B-\ [4f\	4dd-\	.
=68	=68	=68
4B-\] 4f\]	4cc\	.
4D-\	4b-\	.
4Dn\	4f/	.
=69	=69	=69
4E-\ 4B-\	4g-/	.
4B-\	4r	.
[4B-\ [4g-\	4r	.
=70	=70	=70
4B-\] 4g-\]	2gg-\	.
4B-\ 4g-\	.	.
[4Bn\ 4g-\	[4ff\	.
=71	=71	=71
4E-\ 4B\]	4ff\]	.
4c\ 4g-\	4.ee-\	.
[4c\ [4g-\	.	.
.	8dd-\	.
=72	=72	=72
4c\] 4g-\]	8cc\L	.
.	8dd-\	.
4E-\	8ff\	.
.	8ee-\	.
4En\	8cc\	.
.	8b-\J	.
=73	=73	=73
4F\ 4c\	4a-/	.
4c\ 4a-\	4r	.
4c\ 4a-\	[4aa-\	.
=74	=74	=74
4F\	4aa-\]	.
4B-\ 4dn\ 4a-\	4gg-\	.
4B-\ 4d\ 4a-\	4ff\	.
=75	=75	=75
4G-\	4ff\	.
*clefG2	*	*
4B-/ 4e-/ 4g-/	4ee-\	.
[4B-/ [4e-/ [4b-/	[4ddd-\	.
=76	=76	=76
4B-/] 4e-/] 4b-/]	2ddd-\]	.
4B-/ 4e-/ 4b-/	.	.
4B-/ 4e-/ 4b-/	[4ddd-\	.
*clefF4	*	*
=77	=77	=77
4G-\	4ddd-\]	.
*clefG2	*	*
4d-/ 4en/ 4b-/	4.ccc\	.
4d-/ 4e/ 4b-/	.	.
.	8bb-\	.
=78	=78	=78
4A-/	4ccc\	.
4f/ 4dd-/	4bb-\	.
4r	4bb--\	.
*clefF4	*	*
=79	=79	=79
4AA-/	4aa-\	.
4r	4ggn\	.
4A-\ 4c\ 4g-\	4gg-\	.
=80	=80	=80
4D-\	8ff\L	.
.	8cc\	.
.	dd-q/L	.
.	ee-q/J	.
4A-\ 4d-\ 4f\	8dd-\	.
.	8cc\	.
4Gn\ 4d-\ 4en\	8dd-\	.
.	8b-\J	.
=81	=81	=81
4DD-/	2a-/	.
4A-\ 4f\	.	.
4A-\ 4f\	[4ff\	.
=82	=82	=82
4D-\	2ff\]	.
4A-\ 4f\	.	.
[4An\ 4f\	[4ee-\	.
=83	=83	=83
4D-\ 4A\]	4ee-\]	.
4B-\ 4f\	4dd-\	.
[4B-\ 4f\	4an/	.
=84	=84	=84
*^	*	*
2.B-/]	4r	16.cc/L	.
.	.	16.b-/	.
.	.	16.en/	.
.	4D-\	.	.
.	.	16.f/	.
.	.	16.g-/	.
.	.	16.f/	.
.	4Dn\	.	.
.	.	16.b-/	.
.	.	16.an/J	.
*v	*v	*	*
=85	=85	=85
4E-\ 4B-\	12a-/L	.
.	12g-/	.
.	12g-/J	.
4B-\	8gg-\	.
.	8r	.
[4B-\ 4g-\	4r	.
=86	=86	=86
4E-\ 4B-\]	4r	.
4Bn\ 4g-\	4r	.
[4B\ 4g-\	[4ff\	.
=87	=87	=87
4E-\ 4B\]	4ff\]	.
4c\ 4g-\	4ee-\	.
4c\ [4g-\	4dd-\	.
=88	=88	=88
.	ccq/L	.
.	dd-q/	.
.	ee-q/J	.
4c\ 4g-\]	4dd-\	.
4E-\	8cc\L	.
.	8ee-\	.
4En\	8b-\	.
.	8dd-\J	.
=89	=89	=89
4F\ 4c\	4a-/	.
4c\ 4a-\	4r	.
4c\ 4a-\	[4aa-\	.
=90	=90	=90
4F\	4aa-\]	.
*clefG2	*	*
4B-/ 4dn/ 4a-/	4.gg-\	.
4B-/ 4d/ 4a-/	.	.
.	8ff\	.
=91	=91	=91
4G-/	4ff\	.
4B-/ 4e-/ 4g-/	4ee-\	.
4B-/ 4e-/ 4b-/	[4ddd-\	.
=92	=92	=92
4Gn/	2ddd-\]	.
4d-/ 4en/ 4b-/	.	.
4c/	[4ddd-\	.
=93	=93	=93
4en/ 4gn/ 4dd-/	4ddd-\]	.
4d-/	4ccc\	.
4g\ 4b-\ 4een\	4bb-\	.
=94	=94	=94
2.r	4aa-\	.
.	4ggn\	.
.	4gg-\	.
=95	=95	=95
2.r	4ff-\	.
.	4ee-\	.
.	4dd-\	.
=96	=96	=96
2.r	8cc\L	.
.	8dd-\	.
.	8ee-\	.
.	8dd-\	.
.	8ff-\	.
.	8gn\J	.
*clefF4	*	*
=97	=97	=97
*k[f#c#g#d#]	*k[f#c#g#d#]	*k[f#c#g#d#]
4BB#/	8g#\L	.
.	8aa\	.
4G#\ 4d#\	8gg#\	.
.	8ff#\	.
4G#\ 4d#\	8dd#\	.
.	8g#\J	.
=98	=98	=98
4C#/	8ff#\L	.
.	8gg#\	.
4G#\ 4e\	8ff#\	.
.	8ee\	.
4G#\ 4e\	8cc#\	.
.	8g#\J	.
=99	=99	=99
4GG#/	8ee\L	.
.	8ff#\	.
4F#\ 4B#\	8ee\	.
.	8dd#\	.
4F#\ 4B#\	8b#\	.
.	8f#\J	.
=100	=100	=100
4AA/	8dd#\L	.
.	8ee\	.
4E\ 4c#\	8dd#\	.
.	8cc#\	.
4E\ 4c#\	8a\	.
.	8e\J	.
=101	=101	=101
4FF#/	8cc#/L	.
.	8dd#/	.
4F#\ 4c#\	8cc#/	.
.	8a/	.
4r	8d#/	.
.	8cc#/J	.
=102	=102	=102
4GG#/	8cc#/L	.
.	8dd#/	.
4E\ 4G#\	8cc#/	.
.	8g#/	.
4r	8c#/	.
.	8g#/J	.
=103	=103	=103
2GGG#/	8g#^/L	.
.	8G#/	.
.	8d#/	.
.	8g#/	.
4F#\ 4B#\	8a/	.
.	8g#/J	.
=104	=104	=104
4C#/	8f##\L	<
.	8g#\	.
4G#\ 4e\	8b#\	.
.	8cc#\	.
4G#\ 4e\	8ee\	.
.	8ff#\J	.
=105	=105	=105
4BB#/	8gg#\L	>
.	8aa\	.
4G#\ 4d#\	8gg#\	.
.	8ff#\	.
4G#\ 4d#\	8dd#\	.
.	8g#\J	.
=106	=106	=106
4C#/	8ff#\L	>
.	8gg#\	.
4G#\ 4c#\ 4e\	8ff#\	.
.	8ee\	.
4G#\ 4c#\ 4e\	8cc#\	.
.	8g#\J	.
=107	=107	=107
4GG#/	8ee\L	.
.	8ff#\	.
4F#\ 4B#\	8ee\	.
.	8dd#\	.
4F#\ 4B#\	8b#\	.
.	8f#\J	.
=108	=108	=108
4AA/	8dd#\L	.
.	8ee\	.
4E\ 4c#\	8dd#\	.
.	8cc#\	.
4E\ 4c#\	8a\	.
.	8e\J	.
=109	=109	=109
4FF#/	8a\L	.
.	8b\	.
4r	8cc#\	.
.	8ddn\	.
4A\ 4dn\ 4a\	8ee\	>
.	8ff#\J	.
=110	=110	=110
2.r	8ggn\L	.
.	8gg#\	.
.	8aa\	.
.	8bb\	.
.	8ccc#\	.
.	8dddn\J	.
=111	=111	=111
4GG#/	8ddd#\L	.
.	8eee\	.
4G#\ 4B#\ 4f#\	8eee#\	.
.	8fff#\	.
4G#\ 4B#\ 4f#\	8fff##\	.
.	8ggg#\J	.
=112	=112	=112
4C#/	2cccc#\	.
4G#\ 4e\	.	.
4r	4g#/	p
=113	=113	=113
4BB#/	8gg#\L	.
.	8aa\	.
4G#\ 4d#\	8gg#\	.
.	8ff#\	.
4G#\ 4d#\	8dd#\	.
.	8g#\J	.
=114	=114	=114
4C#/	8ff#\L	.
.	8gg#\	.
4G#\ 4e\	8ff#\	.
.	8ee\	.
4G#\ 4e\	8cc#\	.
.	8g#\J	.
=115	=115	=115
4GG#/	8ee\L	.
.	8ff#\	.
4F#\ 4B#\	8ee\	.
.	8dd#\	.
4F#\ 4B#\	8b#\	.
.	8f#\J	.
=116	=116	=116
4AA/	8dd#\L	.
.	8ee\	.
4E\ 4c#\	8dd#\	.
.	8cc#\	.
4E\ 4c#\	8a\	.
.	8e\J	.
=117	=117	=117
4FF#/	8cc#/L	.
.	8dd#/	.
4F#\ 4c#\	8cc#/	.
.	8a/	.
4F#\ 4c#\	8d#/	.
.	8cc#/J	.
=118	=118	=118
4GG#/	8cc#/L	.
.	8dd#/	.
4E\ 4G#\	8cc#/	.
.	8g#/	.
4r	8c#/	.
.	8g#/J	.
=119	=119	=119
2GGG#/	8g#/L	.
.	8G#/	.
.	8d#/	.
.	8g#/	.
4F#\ 4B#\	8a/	.
.	8g#/J	.
=120	=120	=120
4C#/	8f##\L	.
.	8g#\	.
4G#\ 4e\	8b#\	.
.	8cc#\	.
4G#\ 4e\	8ee\	.
.	8ff#\J	.
=121	=121	=121
4BB#/	8gg#\L	>
.	8aa\	.
4G#\ 4d#\	8gg#\	.
.	8ff#\	.
4G#\ 4d#\	8dd#\	.
.	8g#\J	.
=122	=122	=122
4C#/	8ff#\L	.
.	8gg#\	.
4G#\ 4e\	8ff#\	.
.	8ee\	.
4G#\ 4e\	8cc#\	.
.	8g#\J	.
=123	=123	=123
4GG#/	8ee\L	.
.	8ff#\	.
4F#\ 4B#\	8ee\	.
.	8dd#\	.
4F#\ 4B#\	8b#\	.
.	8f#\J	.
=124	=124	=124
4AA/	8dd#\L	.
.	8ee\	.
4E\ 4c#\	8dd#\	.
.	8cc#\	.
4r	8a\	.
.	8e\J	.
=125	=125	=125
2FF#/	8a\L	.
.	8b\	.
.	8cc#\	.
.	8ddn\	.
4A\ 4dn\ 4a\	8ee\	.
.	8ff#\J	.
=126	=126	=126
2r	8ggn\L	>
.	8gg#\	.
.	8aa\	.
.	8bb\	.
4r	8ccc#\	.
.	8dddn\J	.
=127	=127	=127
4GG#/	8ddd#\L	.
.	8eee\	.
4G#\ 4B#\ 4f#\	8eee#\	.
.	8fff#\	.
4G#\ 4B#\ 4f#\	8fff##\	.
.	8ggg#\J	.
=128	=128	=128
4C#/	4cccc#\	.
4G#\ 4c#\ 4e\	4r	.
4r	[4g#/	mp
=129	=129	=129
4CC#/	(2.g#\] 2.ee\	.
4G#\ 4c#\ 4e\	.	.
4G#\ 4c#\ 4e\	.	.
=130	=130	=130
4DD#/	2.f##/) 2.dd#/	.
4D#\ 4A#\ 4c#\	.	.
4D#\ 4A#\ 4c#\	.	.
=131	=131	=131
4GG#/	8r	.
.	8f#/ (8g#/L	<
.	bq/	.
4D#\ 4G#\ 4B#\	8f#/ 8a/	.
.	16r	.
.	16f#/ 16g#/Jk	.
4D#\ 4G#\ 4B#\	4f#/ 4dd#/)	.
=132	=132	=132
4C#/	8r	.
.	8f#/ (8g#/L	.
.	bq/	.
4G#\ 4d#\	8f#/ 8a/	.
.	16r	.
.	16f#/ 16g#/Jk	.
4G#\ 4c#\	4e/ 4cc#/)	.
=133	=133	=133
4EE/	2.e/ (2.cc#/	>
4E\ 4A\	.	.
4E\ 4A\	.	.
=134	=134	=134
4EE/	&(2.d#/&) 2.b#/)	.
4F#\ 4A\	.	.
4F#\ 4A\	.	.
=135	=135	=135
4EE/	8r	.
.	8dn/ (8e/L	<
.	g#q/	.
4G#\	8d/ 8f#/	.
.	16r	.
.	16d/ 16e/Jk	.
4E\ 4G#\	4d/ 4b/)	.
=136	=136	=136
4AA/	8r	.
.	8dn/ (8e/L	.
.	g#q/	.
4E\ 4A\	8c#/ 8f#/	.
.	16r	.
.	16c#/ 16e/Jk	.
4D#\ 4A\	4c#/ 4a/)	.
=137	=137	=137
*	*^	*
4GG#/	2a/	2.B#\ 2.f#\	.
4G#\ 4d#\	.	.	.
4G#\ 4d#\	[4g#/	.	.
=138	=138	=138	=138
*^	*	*	*
4C#/	4r	8g#/L]	2.e\	.
.	.	8g#/	.	.
2c#/	4G#\	8g#/	.	.
.	.	8a/	.	.
.	4F#\	8a/	.	.
.	.	8a#/J	.	.
*v	*v	*	*	*
=139	=139	=139	=139
4BB/	2cc#/	2.d#\ 2.an\	.
4B\ 4f#\	.	.	.
4B\ 4f#\	[4b/	.	.
=140	=140	=140	=140
*^	*	*	*
4r	2.E\	8b/L]	2g#\	.
.	.	8b/	.	.
4B/ 4e/	.	8b/	.	.
.	.	8cc#/	.	.
4A#/ 4e/	.	8cc#/	4g#\	.
.	.	8cc##/J	.	.
*v	*v	*	*	*
*	*v	*v	*
=141	=141	=141
4D#\	8cc##\L	.
.	8dd#\	.
*clefG2	*	*
4B/ 4d#/ 4g#/ 4b/	8dd#\	.
.	8gg#\	.
4r	8gg#\	.
.	8ff##\J	.
*clefF4	*	*
=142	=142	=142
4DD#/	8ff##\L	.
.	8ff#\	.
4c#\ 4f##\	8ff#\	.
.	8ee#\	.
4r	8ee#\	.
.	8een\J	.
=143	=143	=143
4GG#/	8ee\L	.
.	8dd#\	.
4B#\ 4f#\	8dd#\	.
.	8cc##\	.
4r	8cc##\	.
.	8cc#\J	.
=144	=144	=144
2.r	8cc#\L	>
.	8b#\	.
.	8b#\	.
.	8bn\	.
.	8b\	.
.	8a\J	.
=145	=145	=145
4C#/	2.g#\ (2.ee\	.
4G#\ 4c#\ 4e\	.	.
4G#\ 4c#\ 4e\	.	.
=146	=146	=146
*^	*	*
4r	2.D#\	2.f##/ 2.dd#/)	.
4A#/ 4c#/	.	.	.
4A#/ 4c#/	.	.	.
*v	*v	*	*
=147	=147	=147
4GG#/	8r	.
.	8f#/ (8g#/L	mp
.	bq/	.
4D#\ 4G#\ 4B#\	8f#/ 8a/	.
.	16r	.
.	16f#/ 16g#/Jk	.
4D#\ 4G#\ 4B#\	4f#/ 4dd#/)	.
=148	=148	=148
4C#/	8r	.
.	8f#/ (8g#/L	.
.	bq/	.
4G#\ 4d#\	8f#/ 8a/	.
.	16r	.
.	16f#/ 16g#/Jk	.
4G#\ 4c#\	4e/ 4cc#/)	.
=149	=149	=149
4EE/	2.e/ (2.cc#/	.
4E\ 4A\	.	.
4E\ 4A\	.	.
=150	=150	=150
4EE/	2.d#/ 2.b#/)	.
4F#\ 4A\	.	.
4F#\ 4A\	.	.
=151	=151	=151
4EE/	8r	.
.	8dn/ (8e/L	.
.	g#q/	.
4G#\	8d/ 8f#/	.
.	16r	.
.	16d/ 16e/Jk	.
4E\ 4G#\	4d/ 4b/)	.
=152	=152	=152
4AA/	8r	.
.	8dn/ (8e/L	.
.	g#q/	.
4E\ 4A\	8c#/ 8f#/	.
.	16r	.
.	16c#/ 16e/Jk	.
4D#\ 4A\	4c#/ 4a/)	.
=153	=153	=153
*	*^	*
4GG#/	2a/	2.B#\ 2.f#\	.
4G#\ 4d#\	.	.	.
4G#\ 4d#\	[4g#/	.	.
=154	=154	=154	=154
4C#/	8g#/L]	2.e#\	.
.	8g#/	.	.
4G#\ 4B\ 4c#\	8g#/	.	.
.	8a/	.	.
4G#\ 4B\ 4c#\	8a/	.	.
.	8a#/J	.	.
=155	=155	=155	=155
4FF#/	2dd#/	2.en\	.
4A#\ 4f#\	.	.	.
4A#\ 4f#\	[4cc#/	.	.
*	*v	*v	*
=156	=156	=156
4BB/	8cc#/L]	.
.	8f#/	.
4A\ 4B\	8f#/	.
.	8g#/	.
4A\ 4B\	8g#/	.
.	8a/J	.
=157	=157	=157
4EE/	2cc#\	.
4BB\ 4G#\	.	.
4EE#/	[4b\	.
=158	=158	=158
4FF#/	8b/L]	.
.	8a/	.
4D#\ 4A\	8g#/	.
.	8f#/	.
4r	8e/	.
.	8f#/J	.
=159	=159	=159
4GG#/	8f##/L	.
.	8g#/	.
4E\ 4c#\	8G#/	.
.	8e/	.
4F#\ 4B#\	8e/	.
.	8d#/J	.
=160	=160	=160
4CC#/	4c#/	.
4G#\ 4e\	4r	.
4r	4g#/	.
=161	=161	=161
4BB#/	8gg#\L	.
.	8aa\	.
4G#\ 4d#\	8gg#\	.
.	8ff#\	.
4G#\ 4d#\	8dd#\	.
.	8g#\J	.
=162	=162	=162
4C#/	8ff#\L	.
.	8gg#\	.
4G#\ 4e\	8ff#\	.
.	8ee\	.
4G#\ 4e\	8cc#\	.
.	8g#\J	.
=163	=163	=163
4GG#/	8ee\L	.
.	8ff#\	.
4F#\ 4B#\	8ee\	.
.	8dd#\	.
4F#\ 4B#\	8b#\	.
.	8f#\J	.
=164	=164	=164
4AA/	8dd#\L	.
.	8ee\	.
4E\ 4c#\	8dd#\	.
.	8cc#\	.
4E\ 4c#\	8a\	.
.	8e\J	.
=165	=165	=165
4FF#/	8cc#/L	.
.	8dd#/	.
4F#\ 4c#\	8cc#/	.
.	8a/	.
4r	8d#/	.
.	8cc#/J	.
=166	=166	=166
4GG#/	8cc#/L	.
.	8dd#/	.
4E\ 4G#\	8cc#/	.
.	8g#/	.
4r	8c#/	.
.	8g#/J	.
=167	=167	=167
2GGG#/	8g#^/L	.
.	8G#/	.
.	8d#/	.
.	8g#/	.
4F#\ 4B#\	8a/	.
.	8g#/J	.
=168	=168	=168
4C#/	8f##\L	<
.	8g#\	.
4G#\ 4e\	8b#\	.
.	8cc#\	.
4G#\ 4e\	8ee\	.
.	8ff#\J	.
=169	=169	=169
4BB#/	8gg#\L	>
.	8aa\	.
4G#\ 4d#\	8gg#\	.
.	8ff#\	.
4G#\ 4d#\	8dd#\	.
.	8g#\J	.
=170	=170	=170
4C#/	8ff#\L	>
.	8gg#\	.
4G#\ 4c#\ 4e\	8ff#\	.
.	8ee\	.
4G#\ 4c#\ 4e\	8cc#\	.
.	8g#\J	.
=171	=171	=171
4GG#/	8ee\L	.
.	8ff#\	.
4F#\ 4B#\	8ee\	.
.	8dd#\	.
4F#\ 4B#\	8b#\	.
.	8f#\J	.
=172	=172	=172
4AA/	8dd#\L	.
.	8ee\	.
4E\ 4c#\	8dd#\	.
.	8cc#\	.
4E\ 4c#\	8a\	.
.	8e\J	.
=173	=173	=173
4FF#/	8a\L	.
.	8b\	.
4r	8cc#\	.
.	8ddn\	.
4A\ 4dn\ 4a\	8ee\	>
.	8ff#\J	.
=174	=174	=174
2.r	8ggn\L	.
.	8gg#\	.
.	8aa\	.
.	8bb\	.
.	8ccc#\	.
.	8dddn\J	.
=175	=175	=175
4GG#/	8ddd#\L	.
.	8eee\	.
4G#\ 4B#\ 4f#\	8eee#\	.
.	8fff#\	.
4G#\ 4B#\ 4f#\	8gggn\	.
.	8ggg#\J	.
=176	=176	=176
4C#/	2cccc#\	.
4G#\ 4e\	.	.
4r	4g#/	mp
=177	=177	=177
4BB#/	8gg#\L	>
.	8aa\	.
4G#\ 4d#\	8gg#\	.
.	8ff#\	.
4G#\ 4d#\	8dd#\	.
.	8g#\J	.
=178	=178	=178
4C#/	8ff#\L	>
.	8gg#\	.
4G#\ 4e\	8ff#\	.
.	8ee\	.
4G#\ 4e\	8cc#\	.
.	8g#\J	.
=179	=179	=179
4GG#/	8ee\L	.
.	8ff#\	.
4F#\ 4B#\	8ee\	.
.	8dd#\	.
4F#\ 4B#\	8b#\	.
.	8f#\J	.
=180	=180	=180
4AA/	8dd#\L	.
.	8ee\	.
4E\ 4c#\	8dd#\	.
.	8cc#\	.
4E\ 4c#\	8a\	.
.	8e\J	.
=181	=181	=181
4FF#/	8cc#/L	.
.	8dd#/	.
4F#\ 4c#\	8cc#/	.
.	8a/	.
4F#\ 4c#\	8d#/	.
.	8cc#/J	.
=182	=182	=182
4GG#/	8cc#/L	.
.	8dd#/	.
4E\ 4G#\	8cc#/	.
.	8g#/	.
4r	8c#/	.
.	8g#/J	.
=183	=183	=183
2GGG#/	8g#/L	.
.	8G#/	.
.	8d#/	.
.	8g#/	.
4F#\ 4B#\	8a/	.
.	8g#/J	.
=184	=184	=184
4C#/	8f##\L	<
.	8g#\	.
4G#\ 4e\	8b#\	.
.	8cc#\	.
4G#\ 4e\	8ee\	.
.	8ff#\J	.
=185	=185	=185
4BB#/	8gg#\L	>
.	8aa\	.
4G#\ 4d#\	8gg#\	.
.	8ff#\	.
4G#\ 4d#\	8dd#\	.
.	8g#\J	.
=186	=186	=186
4C#/	8ff#\L	.
.	8gg#\	.
4G#\ 4e\	8ff#\	.
.	8ee\	.
4G#\ 4e\	8cc#\	.
.	8g#\J	.
=187	=187	=187
4GG#/	8ee\L	.
.	8ff#\	.
4F#\ 4B#\	8ee\	.
.	8dd#\	.
4F#\ 4B#\	8b#\	.
.	8f#\J	.
=188	=188	=188
4AA/	8dd#\L	.
.	8ee\	.
4E\ 4c#\	8dd#\	.
.	8cc#\	.
4r	8a\	.
.	8e\J	.
=189	=189	=189
2FF#/	8a\L	.
.	8b\	.
.	8cc#\	.
.	8ddn\	.
4A\ 4dn\ 4a\	8ee\	>
.	8ff#\J	.
=190	=190	=190
2r	8ggn\L	.
.	8gg#\	.
.	8aa\	.
.	8bb\	.
4r	8ccc#\	.
.	8dddn\J	.
=191	=191	=191
4GG#/	8ddd#\L	.
.	8eee\	.
4G#\ 4B#\ 4f#\	8eee#\	.
.	8fff#\	.
4G#\ 4B#\ 4f#\	8gggn\	.
.	8ggg#\J	.
=192	=192	=192
*^	*	*
4r	2C#\	4cccc#\	pp
4G#/ 4c#/ 4e/	.	4r	.
4r	4r	4r	.
*v	*v	*	*
==	==	==
*-	*-	*-
!!!ENC: Craig Stuart Sapp
!!!END: 2004/12/23/
